X: 12267
T: Fairly Shot Of Her
R: jig
M: 6/8
K: Eminor
E/F/GE E/F/GE|E2 B BGE|E/F/GE E/F/GE|D2 A AFD|
E/F/GE E/F/GE|E2 B BGB|cBA dcB|DDA AFD|
B/^c/dE B2 E|B/^c/dE BGE|B/^c/dE B2 E|DDA AFD|
B/^c/dE B2 E|B/^c/d=c BGB|cBA dcB|DDA AFD||

